wp-content/themes/canvas/img/usergroupDark.svg

<svg height="47" viewBox="0 0 79 47" width="79" xmlns="http://www.w3.org/2000/svg"><path d="m189.039062 109.765625-.390624 5.234375h-5.78125l.390624-5.742188c.664063-7.460937 6.367188-11.7187495 15.664063-11.7187495 1.015625 0 1.953125.0390625 2.890625.15625-1.210938 1.7578125-2.03125 3.7499995-2.5 6.0156255-.117188 0-.234375-.039063-.390625-.039063-8.984375 0-9.765625 4.609375-9.882813 6.09375zm70.703126-.546875.429687 5.78125h-5.820313l-.390624-5.273438c-.117188-1.445312-.898438-6.054687-9.882813-6.054687-.117187 0-.234375.039063-.390625.039063-.429688-2.265626-1.289062-4.257813-2.460938-6.0156255.898438-.1171875 1.875-.15625 2.851563-.15625 9.296875 0 15 4.2578125 15.664063 11.6796875zm-50.390626-2.65625-.703124 8.4375h-5.820313l.703125-8.867188c.78125-7.851562 7.304688-12.3437495 17.96875-12.3437495s17.1875 4.4921875 17.96875 12.3046875l.703125 8.90625h-5.820313l-.703124-8.476562c-.429688-4.375-4.765626-6.601563-12.148438-6.601563s-11.71875 2.226563-12.148438 6.640625zm-11.601562-11.5625c-5.703125 0-10-4.8828125-10-11.40625 0-5.703125 4.21875-9.84375 10-9.84375s10 4.140625 10 9.84375c0 6.5234375-4.296875 11.40625-10 11.40625zm0-15.234375c-1.914062 0-3.945312 1.015625-3.945312 3.7890625 0 3.125 1.679687 5.4296875 3.945312 5.4296875 2.304688 0 3.945312-2.3046875 3.945312-5.4296875 0-2.7734375-2.03125-3.7890625-3.945312-3.7890625zm46.25 15.234375c-5.703125 0-10-4.8828125-10-11.40625 0-5.703125 4.21875-9.84375 10-9.84375 5.703125 0 10 4.2578125 10 9.84375 0 6.5234375-4.296875 11.40625-10 11.40625zm-.039062-15.234375c-1.914063 0-3.945313 1.015625-3.945313 3.7890625 0 3.125 1.679687 5.4296875 3.945313 5.4296875 2.265624 0 3.945312-2.3046875 3.945312-5.4296875 0-2.9296875-2.03125-3.7890625-3.945312-3.7890625zm-23.085938 11.484375c-6.054688 0-10.625-5.1953125-10.625-12.0703125 0-5.859375 4.648438-10.4296875 10.625-10.4296875s10.625 4.5703125 10.625 10.4296875c0 6.875-4.570312 12.0703125-10.625 12.0703125zm0-16.484375c-2.617188 0-4.609375 1.875-4.609375 4.375 0 3.515625 1.953125 6.09375 4.609375 6.09375s4.609375-2.578125 4.609375-6.09375c0-2.5-1.992187-4.375-4.609375-4.375z" fill="#222d40" fill-rule="evenodd" transform="translate(-182 -68)"/></svg>

<svg width="79px" height="47px" viewBox="0 0 79 47" version="1.1" xmlns="http://www.w3.org/2000/svg" xmlns:xlink="http://www.w3.org/1999/xlink">
    <g id="Page-1" stroke="none" stroke-width="1" fill="none" fill-rule="evenodd">
        <g id="Concept-Two" transform="translate(-202.000000, -4423.000000)" fill="#222D40">
            <g id="Group-10" transform="translate(20.000000, 3856.000000)">
                <g id="Group-5">
                    <g id="Group-9">
                        <g id="Group-19" transform="translate(0.000000, 499.000000)">
                            <path d="M189.039062,109.765625 L188.648438,115 L182.867188,115 L183.257812,109.257812 C183.921875,101.796875 189.625,97.5390625 198.921875,97.5390625 C199.9375,97.5390625 200.875,97.578125 201.8125,97.6953125 C200.601562,99.453125 199.78125,101.445312 199.3125,103.710938 C199.195312,103.710938 199.078125,103.671875 198.921875,103.671875 C189.9375,103.671875 189.15625,108.28125 189.039062,109.765625 Z M259.742188,109.21875 L260.171875,115 L254.351562,115 L253.960938,109.726562 C253.84375,108.28125 253.0625,103.671875 244.078125,103.671875 C243.960938,103.671875 243.84375,103.710938 243.6875,103.710938 C243.257812,101.445312 242.398438,99.453125 241.226562,97.6953125 C242.125,97.578125 243.101562,97.5390625 244.078125,97.5390625 C253.375,97.5390625 259.078125,101.796875 259.742188,109.21875 Z M209.351562,106.5625 L208.648438,115 L202.828125,115 L203.53125,106.132812 C204.3125,98.28125 210.835938,93.7890625 221.5,93.7890625 C232.164062,93.7890625 238.6875,98.28125 239.46875,106.09375 L240.171875,115 L234.351562,115 L233.648438,106.523438 C233.21875,102.148438 228.882812,99.921875 221.5,99.921875 C214.117188,99.921875 209.78125,102.148438 209.351562,106.5625 Z M197.75,95 C192.046875,95 187.75,90.1171875 187.75,83.59375 C187.75,77.890625 191.96875,73.75 197.75,73.75 C203.53125,73.75 207.75,77.890625 207.75,83.59375 C207.75,90.1171875 203.453125,95 197.75,95 Z M197.75,79.765625 C195.835938,79.765625 193.804688,80.78125 193.804688,83.5546875 C193.804688,86.6796875 195.484375,88.984375 197.75,88.984375 C200.054688,88.984375 201.695312,86.6796875 201.695312,83.5546875 C201.695312,80.78125 199.664062,79.765625 197.75,79.765625 Z M244,95 C238.296875,95 234,90.1171875 234,83.59375 C234,77.890625 238.21875,73.75 244,73.75 C249.703125,73.75 254,78.0078125 254,83.59375 C254,90.1171875 249.703125,95 244,95 Z M243.960938,79.765625 C242.046875,79.765625 240.015625,80.78125 240.015625,83.5546875 C240.015625,86.6796875 241.695312,88.984375 243.960938,88.984375 C246.226562,88.984375 247.90625,86.6796875 247.90625,83.5546875 C247.90625,80.625 245.875,79.765625 243.960938,79.765625 Z M220.875,91.25 C214.820312,91.25 210.25,86.0546875 210.25,79.1796875 C210.25,73.3203125 214.898438,68.75 220.875,68.75 C226.851562,68.75 231.5,73.3203125 231.5,79.1796875 C231.5,86.0546875 226.929688,91.25 220.875,91.25 Z M220.875,74.765625 C218.257812,74.765625 216.265625,76.640625 216.265625,79.140625 C216.265625,82.65625 218.21875,85.234375 220.875,85.234375 C223.53125,85.234375 225.484375,82.65625 225.484375,79.140625 C225.484375,76.640625 223.492188,74.765625 220.875,74.765625 Z" id="usergroup"></path>
                        </g>
                    </g>
                </g>
            </g>
        </g>
    </g>
</svg>
